icons/midnadark/actions/24/format-precision-less.svg

<?xml version="1.0" encoding="UTF-8" standalone="no"?>
<!-- Created with Inkscape (http://www.inkscape.org/) -->

<svg
   xmlns:dc="http://purl.org/dc/elements/1.1/"
   xmlns:cc="http://creativecommons.org/ns#"
   xmlns:rdf="http://www.w3.org/1999/02/22-rdf-syntax-ns#"
   xmlns:svg="http://www.w3.org/2000/svg"
   xmlns="http://www.w3.org/2000/svg"
   xmlns:sodipodi="http://sodipodi.sourceforge.net/DTD/sodipodi-0.dtd"
   xmlns:inkscape="http://www.inkscape.org/namespaces/inkscape"
   width="22"
   height="22"
   id="svg3049"
   version="1.1"
   inkscape:version="0.91 r13725"
   sodipodi:docname="format-precision-less.svg"
   inkscape:export-filename="/home/uri/.kde/share/icons/NITRUX-KDE/16x16/actions/view-right-new.png"
   inkscape:export-xdpi="30"
   inkscape:export-ydpi="30">
  <defs
     id="defs3051">
    <style
       type="text/css"
       id="current-color-scheme">
      .ColorScheme-Text {
        color:#f2f2f2;
      }
      .ColorScheme-Background {
        color:#eff0f1;
      }
      .ColorScheme-Highlight {
        color:#3daee9;
      }
      .ColorScheme-ViewText {
        color:#31363b;
      }
      .ColorScheme-ViewBackground {
        color:#fcfcfc;
      }
      .ColorScheme-ViewHover {
        color:#93cee9;
      }
      .ColorScheme-ViewFocus{
        color:#3daee9;
      }
      .ColorScheme-ButtonText {
        color:#31363b;
      }
      .ColorScheme-ButtonBackground {
        color:#eff0f1;
      }
      .ColorScheme-ButtonHover {
        color:#93cee9;
      }
      .ColorScheme-ButtonFocus{
        color:#3daee9;
      }
      </style>
  </defs>
  <sodipodi:namedview
     id="base"
     pagecolor="#ffffff"
     bordercolor="#666666"
     borderopacity="1.0"
     inkscape:pageopacity="0.0"
     inkscape:pageshadow="2"
     inkscape:zoom="18.148491"
     inkscape:cx="7.9728821"
     inkscape:cy="10.286969"
     inkscape:document-units="px"
     inkscape:current-layer="layer1"
     showgrid="true"
     fit-margin-top="0"
     fit-margin-left="0"
     fit-margin-right="0"
     fit-margin-bottom="0"
     inkscape:window-width="956"
     inkscape:window-height="1013"
     inkscape:window-x="-4"
     inkscape:window-y="0"
     inkscape:window-maximized="0"
     inkscape:showpageshadow="false"
     borderlayer="true"
     inkscape:object-nodes="true">
    <sodipodi:guide
       position="2.0000044,20.00003"
       orientation="18,0"
       id="guide4067" />
    <sodipodi:guide
       position="2.0000044,2.0000296"
       orientation="0,18"
       id="guide4069" />
    <sodipodi:guide
       position="20.000004,2.0000296"
       orientation="-18,0"
       id="guide4071" />
    <sodipodi:guide
       position="20.000004,20.00003"
       orientation="0,-18"
       id="guide4073" />
    <sodipodi:guide
       position="3.0000044,19.00003"
       orientation="16,0"
       id="guide4077" />
    <sodipodi:guide
       position="3.0000044,3.0000296"
       orientation="0,16"
       id="guide4079" />
    <sodipodi:guide
       position="19.000004,3.0000296"
       orientation="-16,0"
       id="guide4081" />
    <sodipodi:guide
       position="19.000004,19.00003"
       orientation="0,-16"
       id="guide4083" />
    <inkscape:grid
       type="xygrid"
       id="grid4085" />
    <sodipodi:guide
       position="11.000004,18.999969"
       orientation="0,-6"
       id="guide4175" />
    <sodipodi:guide
       position="9.9999739,18.999969"
       orientation="0,-4.9999695"
       id="guide4201" />
  </sodipodi:namedview>
  <metadata
     id="metadata3054">
    <rdf:RDF>
      <cc:Work
         rdf:about="">
        <dc:format>image/svg+xml</dc:format>
        <dc:type
           rdf:resource="http://purl.org/dc/dcmitype/StillImage" />
        <dc:title></dc:title>
      </cc:Work>
    </rdf:RDF>
  </metadata>
  <g
     inkscape:label="Capa 1"
     inkscape:groupmode="layer"
     id="layer1"
     transform="translate(-421.71429,-525.79074)">
    <g
       transform="translate(420.71429,-504.57146)"
       id="layer1-0"
       inkscape:label="Capa 1">
      <path
         inkscape:connector-curvature="0"
         id="rect3767-3"
         d="m 14.37868,1046.0693 1.414213,1.4142 -1.414213,1.4142 0.707106,0.7071 1.414214,-1.4142 1.414214,1.4142 0.707106,-0.7071 -1.414213,-1.4142 1.414213,-1.4142 -0.707106,-0.7071 -1.414214,1.4142 -1.414214,-1.4142 -0.707106,0.7071 z"
         style="color:#000000;display:inline;overflow:visible;visibility:visible;fill:#da4453;fill-opacity:1;fill-rule:evenodd;stroke:none;stroke-width:2;marker:none;enable-background:accumulate" />
      <path
         id="rect3927-4"
         transform="translate(-1,1029.3622)"
         d="m 4,14 0,1 1,0 0,-1 -1,0 z"
         style="color:#000000;display:inline;overflow:visible;visibility:visible;fill:#f2f2f2;fill-opacity:1;fill-rule:nonzero;stroke:none;stroke-width:1;marker:none;enable-background:accumulate"
         inkscape:connector-curvature="0" />
      <path
         id="path3987-7-6"
         transform="translate(-1,1029.3622)"
         d="M 17.5,4 C 15.567003,4 14,5.7909 14,8 l 0,1 0,2 c 0,2.2091 1.567003,4 3.5,4 1.932997,0 3.5,-1.7909 3.5,-4 L 21,9 21,8 C 21,5.7909 19.432997,4 17.5,4 Z m 0,1 C 18.880712,5 20,6.3431 20,8 l 0,3 c 0,1.6569 -1.119288,3 -2.5,3 C 16.119288,14 15,12.6569 15,11 l 0,-3 c 0,-1.6569 1.119288,-3 2.5,-3 z"
         style="color:#000000;display:inline;overflow:visible;visibility:visible;fill:#b3b3b3;fill-opacity:1;fill-rule:nonzero;stroke:none;stroke-width:1;marker:none;enable-background:accumulate"
         inkscape:connector-curvature="0" />
      <path
         id="path3987-7-8"
         transform="translate(-1,1029.3622)"
         d="M 9.5,4 C 7.567003,4 6,5.7909 6,8 l 0,1 0,2 c 0,2.2091 1.567003,4 3.5,4 1.932997,0 3.5,-1.7909 3.5,-4 L 13,9 13,8 C 13,5.7909 11.432997,4 9.5,4 Z m 0,1 C 10.880712,5 12,6.3431458 12,8 l 0,3 c 0,1.656854 -1.119288,3 -2.5,3 C 8.1192881,14 7,12.656854 7,11 L 7,8 C 7,6.3431458 8.1192881,5 9.5,5 Z"
         style="color:#000000;display:inline;overflow:visible;visibility:visible;fill:#f2f2f2;fill-opacity:1;fill-rule:nonzero;stroke:none;stroke-width:1;marker:none;enable-background:accumulate"
         inkscape:connector-curvature="0" />
    </g>
  </g>
</svg>

<svg xmlns="http://www.w3.org/2000/svg" viewBox="0 0 22 22"><g transform="translate(-1-1030.36)" color="#000"><path d="m14.379 1046.07l1.414 1.414-1.414 1.414.707.707 1.414-1.414 1.414 1.414.707-.707-1.414-1.414 1.414-1.414-.707-.707-1.414 1.414-1.414-1.414-.707.707" fill="#da4453" fill-rule="evenodd"/><g transform="translate(-1 1029.36)"><path d="m4 14v1h1v-1h-1" fill="#f2f2f2"/><path d="m17.5 4c-1.933 0-3.5 1.791-3.5 4v1 2c0 2.209 1.567 4 3.5 4 1.933 0 3.5-1.791 3.5-4v-2-1c0-2.209-1.567-4-3.5-4m0 1c1.381 0 2.5 1.343 2.5 3v3c0 1.657-1.119 3-2.5 3-1.381 0-2.5-1.343-2.5-3v-3c0-1.657 1.119-3 2.5-3z" fill="#b3b3b3"/><path d="m9.5 4c-1.933 0-3.5 1.791-3.5 4v1 2c0 2.209 1.567 4 3.5 4 1.933 0 3.5-1.791 3.5-4v-2-1c0-2.209-1.567-4-3.5-4m0 1c1.381 0 2.5 1.343 2.5 3v3c0 1.657-1.119 3-2.5 3-1.381 0-2.5-1.343-2.5-3v-3c0-1.657 1.119-3 2.5-3" fill="#f2f2f2"/></g></g></svg>
